X:12
T:Passepied in E minor
C:Bach, J.S.
M:3/8
L:1/8
Q:3/8=116
K:Emin
|:B|e2f|gag|fef|ede|dcd|BcB|ABA|G2B|
e2f|gag|fef|ede|dBG|FGA|B3|e3:|

